flaticon/army-badges/chevron-2.svg

<svg xmlns="http://www.w3.org/2000/svg" width="32" height="32" viewBox="0 0 24 24">
    <path d="M 12 18.398438 C 10.878906 18.398438 10 19.28125 10 20.398438 C 10 21.519531 10.878906 22.398438 12 22.398438 C 13.121094 22.398438 14 21.519531 14 20.398438 C 14 19.28125 13.121094 18.398438 12 18.398438 Z M 12 21.601562 C 11.320312 21.601562 10.800781 21.078125 10.800781 20.398438 C 10.800781 19.71875 11.320312 19.199219 12 19.199219 C 12.679688 19.199219 13.199219 19.71875 13.199219 20.398438 C 13.199219 21.078125 12.679688 21.601562 12 21.601562 Z M 12 21.601562"/>
    <path d="M 18.398438 0.0390625 L 8.1875 0.0390625 C 8.132812 0.015625 8.070312 0 8 0 L 5.601562 0 C 5.359375 0 5.199219 0.160156 5.199219 0.398438 L 5.199219 19.199219 C 5.199219 19.601562 5.398438 20 5.71875 20.199219 L 7.761719 21.601562 C 7.789062 21.613281 7.816406 21.628906 7.84375 21.640625 L 10.679688 23.601562 C 11.078125 23.878906 11.519531 24 12 24 C 12.480469 24 12.921875 23.878906 13.320312 23.601562 L 16.15625 21.640625 C 16.183594 21.628906 16.210938 21.613281 16.238281 21.601562 L 18.238281 20.199219 C 18.601562 20 18.800781 19.601562 18.800781 19.199219 L 18.800781 0.441406 C 18.800781 0.199219 18.640625 0.0390625 18.398438 0.0390625 Z M 17.800781 19.519531 L 16.398438 20.480469 L 16.398438 12.933594 L 18 11.933594 L 18 19.160156 C 18 19.199219 17.996094 19.238281 17.984375 19.273438 C 17.957031 19.378906 17.890625 19.460938 17.800781 19.519531 Z M 8.285156 12.433594 C 8.261719 12.40625 8.230469 12.382812 8.199219 12.359375 L 6 10.964844 L 6 9.519531 L 11.761719 13.160156 C 11.921875 13.238281 12.078125 13.238281 12.199219 13.160156 L 16.195312 10.679688 C 16.195312 10.679688 16.199219 10.679688 16.199219 10.679688 L 16.417969 10.542969 L 18 9.558594 L 18 11 L 12 14.761719 Z M 7.601562 20.480469 L 6.199219 19.519531 C 6.078125 19.480469 6 19.320312 6 19.199219 L 6 11.921875 L 7.601562 12.921875 Z M 12 12.359375 L 8.398438 10.082031 L 8.398438 8.59375 L 11.800781 10.71875 C 11.839844 10.761719 11.921875 10.800781 12 10.800781 C 12.078125 10.800781 12.160156 10.800781 12.199219 10.71875 L 15.601562 8.59375 L 15.601562 10.105469 Z M 16.195312 5.878906 C 16.195312 5.878906 16.199219 5.878906 16.199219 5.878906 L 16.417969 5.742188 L 18 4.761719 L 18 6.199219 L 12 9.960938 L 8.285156 7.632812 C 8.261719 7.605469 8.230469 7.582031 8.199219 7.558594 L 6 6.167969 L 6 4.71875 L 11.761719 8.359375 C 11.921875 8.441406 12.078125 8.441406 12.199219 8.359375 Z M 18 8.601562 L 16.398438 9.601562 L 16.398438 8.121094 L 18 7.160156 Z M 7.601562 9.578125 L 6 8.566406 L 6 7.160156 L 7.601562 8.160156 Z M 12 7.558594 L 8.398438 5.285156 L 8.398438 0.839844 L 15.601562 0.839844 L 15.601562 5.308594 Z M 7.601562 4.777344 L 6 3.765625 L 6 0.839844 L 7.601562 0.839844 Z M 18 0.839844 L 18 3.800781 L 16.398438 4.800781 L 16.398438 0.839844 Z M 12.878906 22.921875 C 12.359375 23.28125 11.640625 23.28125 11.121094 22.921875 L 8.398438 21.039062 L 8.398438 13.394531 L 11.800781 15.519531 C 11.839844 15.558594 11.921875 15.601562 12 15.601562 C 12.078125 15.601562 12.160156 15.601562 12.199219 15.558594 L 15.601562 13.433594 L 15.601562 21.039062 Z M 12.878906 22.921875"/>
</svg>

<svg xmlns="http://www.w3.org/2000/svg" width="32" height="32" viewBox="0 0 24 24">
    <path d="M12 18.398c-1.121 0-2 .883-2 2 0 1.122.879 2 2 2s2-.878 2-2c0-1.117-.879-2-2-2zm0 3.204c-.68 0-1.2-.524-1.2-1.204 0-.68.52-1.199 1.2-1.199.68 0 1.2.52 1.2 1.2 0 .68-.52 1.203-1.2 1.203zm0 0"/>
    <path d="M18.398.04H8.188A.472.472 0 0 0 8 0H5.602c-.243 0-.403.16-.403.398V19.2c0 .403.2.801.52 1l2.043 1.403c.027.011.054.027.082.039l2.836 1.96c.398.278.84.399 1.32.399.48 0 .922-.121 1.32-.398l2.836-1.961c.028-.012.055-.028.082-.04l2-1.402c.364-.199.563-.597.563-1V.441c0-.242-.16-.402-.403-.402zm-.597 19.48l-1.403.96v-7.546l1.602-1v7.226a.417.417 0 0 1-.2.36zm-9.516-7.086a.534.534 0 0 0-.086-.075L6 10.965V9.52l5.762 3.64c.16.078.316.078.437 0l3.996-2.48h.004l.219-.137L18 9.559V11l-6 3.762zm-.683 8.046l-1.403-.96c-.12-.04-.199-.2-.199-.32v-7.278l1.602 1zM12 12.36l-3.602-2.278V8.594l3.403 2.125c.039.043.12.082.199.082.078 0 .16 0 .2-.082l3.402-2.125v1.511zm4.195-6.481h.004l.219-.137L18 4.762v1.437l-6 3.762-3.715-2.328a.534.534 0 0 0-.086-.074L6 6.168v-1.45l5.762 3.641c.16.082.316.082.437 0zM18 8.602l-1.602 1v-1.48L18 7.16zm-10.398.976L6 8.566V7.16l1.602 1zM12 7.558L8.398 5.286V.84h7.204v4.469zm-4.398-2.78L6 3.765V.84h1.602zM18 .84V3.8l-1.602 1V.84zm-5.121 22.082c-.52.36-1.238.36-1.758 0l-2.723-1.883v-7.644l3.403 2.125c.039.039.12.082.199.082.078 0 .16 0 .2-.043l3.402-2.125v7.605zm0 0"/>
</svg>
